rospo-icon-theme-classic-common/64x64/apps/com.github.mirkobrombin.bottles.svg

<svg height="64" viewBox="0 0 64 64" width="64" xmlns="http://www.w3.org/2000/svg"><g transform="translate(0 -988.3622)"><path d="m46.000011 997.414c-.675752-.02-2.606184-.102-3.000011 0 0 0 .07692 3.0518 0 4.8988-.277187 6.5382-.862513 9.6284-3.298829 14.56-1.289222 2.6096-2.038525 5.0394-2.455078 7.9636-.1831 1.2854-.245908 4.3806-.246091 12.0926-.000183 9.5822.02356 10.4036.322263 10.92.41872.7238 1.014212 1.0006 2.695313 1.2486.928635.136 3.808604.2316 5.982424.2646 2.173814-.034 5.053784-.126 5.982418-.2646 1.6811-.248 2.276592-.5248 2.695314-1.2486.298714-.5164.322446-1.3378.322266-10.92-.000186-7.712-.063-10.8072-.246094-12.0926-.416552-2.9242-1.165858-5.354-2.455078-7.9636-2.436316-4.9316-3.021642-8.0218-3.298828-14.56.14648-2.7506 0-4.9022 0-4.9022-.393828-.098-2.324262-.02-3.000012 0z" opacity=".2"/><path d="m18.000012 997.414c-.675752-.02-2.606182-.102-3.00001 0 0 0 .07692 3.0518 0 4.8988-.277186 6.5382-.862514 9.6284-3.29883 14.56-1.28922 2.6096-2.0385265 5.0394-2.4550785 7.9636-.1831 1.2854-.245908 4.3806-.246092 12.0926-.000182 9.5822.02356 10.4036.322264 10.92.41872.7238 1.0142145 1.0006 2.6953145 1.2486.928635.136 3.808604.2316 5.982422.2646 2.173814-.034 5.053784-.126 5.982418-.2646 1.6811-.248 2.276592-.5248 2.695314-1.2486.298714-.5164.322446-1.3378.322266-10.92-.000186-7.712-.063-10.8072-.246094-12.0926-.416552-2.9242-1.165858-5.354-2.455078-7.9636-2.436317-4.9316-3.021642-8.0218-3.298828-14.56.14648-2.7506 0-4.9022 0-4.9022-.393828-.098-2.32426-.02-3.00001 0z" opacity=".2"/><path d="m18.000012 996.414c-.675752-.02-2.606182-.102-3.00001 0 0 0 .07692 3.0518 0 4.8988-.277186 6.5382-.862514 9.6284-3.29883 14.56-1.28922 2.6096-2.0385265 5.0394-2.4550785 7.9636-.1831 1.2854-.245908 4.3806-.246092 12.0926-.000182 9.5822.02356 10.4036.322264 10.92.41872.7238 1.0142145 1.0006 2.6953145 1.2486.928635.136 3.808604.2316 5.982422.2646 2.173814-.034 5.053784-.126 5.982418-.2646 1.6811-.248 2.276592-.5248 2.695314-1.2486.298714-.5164.322446-1.3378.322266-10.92-.000186-7.712-.063-10.8072-.246094-12.0926-.416552-2.9242-1.165858-5.354-2.455078-7.9636-2.436317-4.9316-3.021642-8.0218-3.298828-14.56.14648-2.7506 0-4.9022 0-4.9022-.393828-.098-2.32426-.02-3.00001 0z" fill="#334933"/><path d="m19.605469 8.0039062c-.616305.00975-1.267594.0349219-1.605469.0449219v.0039063c-.675752-.02-2.606172-.102-3 0 0 0 .010449.6027483.017578.9980468.415327-.0982013 2.31219-.0178834 2.982422.0019532v-.0039063c.67575-.02 2.606172-.098 3 0 0 0 .049444.8575142.058594 2.1093749.026093-1.8327997-.058594-3.1093749-.058594-3.1093749-.196914-.049-.778226-.0546718-1.394531-.0449219zm-4.582031 2.4453128c.003579.848568.007182 1.766711-.023438 2.501953-.277186 6.5382-.862512 9.626994-3.298828 14.558594-1.28922 2.6096-2.0385262 5.040643-2.4550782 7.964843-.1831 1.2854-.2459098 4.379797-.2460938 12.091797-.0000066.347875.0018847.499033.0019531.824219.0014767-7.537143.062944-10.643978.2441407-11.916016.416552-2.9242 1.1658582-5.355243 2.4550782-7.964843 2.436316-4.9316 3.021642-8.020394 3.298828-14.558594.046332-1.112513.038306-2.445421.023438-3.501953zm5.996093 2.882812c-.008211.212323-.00777.398291-.019531.619141.277186 6.5382.862511 9.626994 3.298828 14.558594 1.28922 2.6096 2.038526 5.040643 2.455078 7.964843.181191 1.272038.242662 4.378873.244141 11.916016.000068-.325186.00196-.476344.001953-.824219-.000186-7.712-.063-10.806397-.246094-12.091797-.416552-2.9242-1.165858-5.355243-2.455078-7.964843-2.385909-4.829564-2.994712-7.912324-3.279297-14.177735z" fill="#fff" opacity=".1" transform="translate(0 988.3622)"/><path d="m15.999023 995.3622c-.554002 0-.999024.446-.999024 1v2h6.000001v-2c0-.554-.445025-1-.999027-1z" opacity=".2"/><path d="m15.999023 994.3622c-.554002 0-.999024.446-.999024 1v2h6.000001v-2c0-.554-.445025-1-.999027-1z" fill="#d6aa38"/><path d="m46.000011 996.414c-.675752-.02-2.606184-.102-3.000011 0 0 0 .07692 3.0518 0 4.8988-.277187 6.5382-.862513 9.6284-3.298829 14.56-1.289222 2.6096-2.038525 5.0394-2.455078 7.9636-.1831 1.2854-.245908 4.3806-.246091 12.0926-.000183 9.5822.02356 10.4036.322263 10.92.41872.7238 1.014212 1.0006 2.695313 1.2486.928635.136 3.808604.2316 5.982424.2646 2.173814-.034 5.053784-.126 5.982418-.2646 1.6811-.248 2.276592-.5248 2.695314-1.2486.298714-.5164.322446-1.3378.322266-10.92-.000186-7.712-.063-10.8072-.246094-12.0926-.416552-2.9242-1.165858-5.354-2.455078-7.9636-2.436316-4.9316-3.021642-8.0218-3.298828-14.56.14648-2.7506 0-4.9022 0-4.9022-.393828-.098-2.324262-.02-3.000012 0z" fill="#334933"/><path d="m47.605469 8.0039062c-.616306.00975-1.267594.0349219-1.605469.0449219v.0039063c-.675752-.02-2.606173-.102-3 0 0 0 .010449.6027483.017578.9980468.415326-.0982013 2.31219-.0178834 2.982422.0019532v-.0039063c.67575-.02 2.606172-.098 3 0 0 0 .049444.8575142.058594 2.1093749.026093-1.8327997-.058594-3.1093749-.058594-3.1093749-.196914-.049-.778226-.0546718-1.394531-.0449219zm-4.582031 2.4453128c.003579.848568.007182 1.766711-.023438 2.501953-.277187 6.5382-.862512 9.626994-3.298828 14.558594-1.289222 2.6096-2.038525 5.040643-2.455078 7.964843-.1831 1.2854-.245911 4.379797-.246094 12.091797-.000007.347875.001885.499033.001953.824219.001476-7.537143.062944-10.643978.244141-11.916016.416553-2.9242 1.165856-5.355243 2.455078-7.964843 2.436316-4.9316 3.021641-8.020394 3.298828-14.558594.046332-1.112513.038306-2.445421.023438-3.501953zm5.996093 2.882812c-.008211.212323-.00777.398291-.019531.619141.277186 6.5382.862512 9.626994 3.298828 14.558594 1.28922 2.6096 2.038526 5.040643 2.455078 7.964843.181191 1.272038.242662 4.378873.244141 11.916016.000068-.325186.00196-.476344.001953-.824219-.000186-7.712-.063-10.806397-.246094-12.091797-.416552-2.9242-1.165858-5.355243-2.455078-7.964843-2.385908-4.829564-2.994712-7.912324-3.279297-14.177735z" fill="#fff" opacity=".1" transform="translate(0 988.3622)"/><path d="m43.999021 995.3622c-.554002 0-.999024.446-.999024 1v2h6.000003v-2c0-.554-.445024-1-.999027-1z" opacity=".2"/><path d="m43.999021 994.3622c-.554002 0-.999024.446-.999024 1v2h6.000003v-2c0-.554-.445024-1-.999027-1z" fill="#d6aa38"/><path d="m32.000011 995.4142c-.675752-.02-2.606182-.102-3.00001 0 0 0 .07692 5.0516 0 6.8986-.277186 6.5382-.862514 9.6284-3.29883 14.56-1.28922 2.6096-2.038526 5.0394-2.455078 7.9636-.1831 1.2854-.245908 4.3806-.246092 12.0926-.000182 9.5822.02356 10.4036.322264 10.92.41872.7238 1.014214 1.0006 2.695314 1.2486.928636.136 3.808604.2316 5.982422.2646 2.173814-.034 5.053784-.126 5.982418-.2646 1.6811-.248 2.276592-.5248 2.695315-1.2486.298713-.5164.322446-1.3378.322266-10.92-.000186-7.712-.063-10.8072-.246094-12.0926-.416553-2.9242-1.165858-5.354-2.455078-7.9636-2.436316-4.9316-3.021642-8.0218-3.298828-14.56.146479-2.7506 0-6.902 0-6.902-.393828-.098-2.324261-.02-3.000011 0z" opacity=".2"/><path d="m32.000011 994.4142c-.675752-.02-2.606182-.102-3.00001 0 0 0 .07692 5.0516 0 6.8986-.277186 6.5382-.862514 9.6284-3.29883 14.56-1.28922 2.6096-2.038526 5.0394-2.455078 7.9636-.1831 1.2854-.245908 4.3806-.246092 12.0926-.000182 9.5822.02356 10.4036.322264 10.92.41872.7238 1.014214 1.0006 2.695314 1.2486.928636.136 3.808604.2316 5.982422.2646 2.173814-.034 5.053784-.126 5.982418-.2646 1.6811-.248 2.276592-.5248 2.695315-1.2486.298713-.5164.322446-1.3378.322266-10.92-.000186-7.712-.063-10.8072-.246094-12.0926-.416553-2.9242-1.165858-5.354-2.455078-7.9636-2.436316-4.9316-3.021642-8.0218-3.298828-14.56.146479-2.7506 0-6.902 0-6.902-.393828-.098-2.324261-.02-3.000011 0z" fill="#962b57"/><path d="m33.605469 6.0039062c-.616306.00975-1.267594.0349219-1.605469.0449219v.0039063c-.675752-.02-2.606172-.102-3 0 0 0 .00608.7167416.009766 1 .405753-.0998998 2.31752-.0199101 2.990234 0v-.0039063c.67575-.02 2.606172-.098 3 0 0 0 .055661 1.7868452.058594 3.7734379.024461-2.3656666-.058594-4.7734379-.058594-4.7734379-.196914-.049-.778226-.0546718-1.394531-.0449219zm-4.580078 3.4042969c.005326 1.3162319.007502 2.7531389-.025391 3.5429689-.277186 6.5382-.862512 9.626994-3.298828 14.558594-1.28922 2.6096-2.038526 5.040643-2.455078 7.964843-.1831 1.2854-.24591 4.379797-.246094 12.091797-.000007.347875.001885.499033.001953.824219.001477-7.537143.062944-10.643978.244141-11.916016.416552-2.9242 1.165858-5.355243 2.455078-7.964843 2.436316-4.9316 3.021642-8.020394 3.298828-14.558594.044048-1.057671.038905-2.933951.025391-4.5429689zm5.992187 3.8886719c-.007742.213608-.006883.453463-.017578.654297.277186 6.5382.862512 9.626994 3.298828 14.558594 1.28922 2.6096 2.038525 5.040643 2.455078 7.964843.181191 1.272038.242662 4.378873.244141 11.916016.000068-.325186.00196-.476344.001953-.824219-.000186-7.712-.063-10.806397-.246094-12.091797-.416553-2.9242-1.165858-5.355243-2.455078-7.964843-2.390562-4.838985-2.997379-7.922724-3.28125-14.212891z" fill="#fff" opacity=".1" transform="translate(0 988.3622)"/><path d="m29.999023 993.3622c-.554002 0-.999023.446-.999023 1v2h6v-2c0-.554-.445024-1-.999027-1z" opacity=".2"/><path d="m29.999023 992.3622c-.554002 0-.999023.446-.999023 1v2h6v-2c0-.554-.445024-1-.999027-1z" fill="#ffcb46"/><g fill="#fff" transform="translate(0 988.3622)"><path d="m15.998047 6c-.554002 0-.998047.446-.998047 1v1c0-.554.444045-1 .998047-1h4.001953c.554002 0 1 .446 1 1v-1c0-.554-.445998-1-1-1z" opacity=".1"/><path d="m43.998047 6c-.554002 0-.998047.446-.998047 1v1c0-.554.444045-1 .998047-1h4.001953c.554003 0 1 .446 1 1v-1c0-.554-.445997-1-1-1z" opacity=".1"/><path d="m29.998047 4c-.554002 0-.998047.446-.998047 1v1c0-.554.444045-1 .998047-1h4.001953c.554003 0 1 .446 1 1v-1c0-.554-.445997-1-1-1z" opacity=".2"/></g></g></svg>

<svg xmlns="http://www.w3.org/2000/svg" width="64" height="64" version="1.1" viewBox="0 0 64 64">
 <g transform="translate(0,-988.3622)">
  <path d="m 46.000011,997.414 c -0.675752,-0.02 -2.606184,-0.102 -3.000011,0 0,0 0.07692,3.0518 0,4.8988 -0.277187,6.5382 -0.862513,9.6284 -3.298829,14.56 -1.289222,2.6096 -2.038525,5.0394 -2.455078,7.9636 -0.1831,1.2854 -0.245908,4.3806 -0.246091,12.0926 -1.83e-4,9.5822 0.02356,10.4036 0.322263,10.92 0.41872,0.7238 1.014212,1.0006 2.695313,1.2486 0.928635,0.136 3.808604,0.2316 5.982424,0.2646 2.173814,-0.034 5.053784,-0.126 5.982418,-0.2646 1.6811,-0.248 2.276592,-0.5248 2.695314,-1.2486 0.298714,-0.5164 0.322446,-1.3378 0.322266,-10.92 -1.86e-4,-7.712 -0.063,-10.8072 -0.246094,-12.0926 -0.416552,-2.9242 -1.165858,-5.354 -2.455078,-7.9636 -2.436316,-4.9316 -3.021642,-8.0218 -3.298828,-14.56 0.14648,-2.7506 0,-4.9022 0,-4.9022 -0.393828,-0.098 -2.324262,-0.02 -3.000012,0 z" style="opacity:0.2"/>
  <path style="opacity:0.2" d="m 18.000012,997.414 c -0.675752,-0.02 -2.606182,-0.102 -3.00001,0 0,0 0.07692,3.0518 0,4.8988 -0.277186,6.5382 -0.862514,9.6284 -3.29883,14.56 -1.28922,2.6096 -2.0385265,5.0394 -2.4550785,7.9636 -0.1831,1.2854 -0.245908,4.3806 -0.246092,12.0926 -1.82e-4,9.5822 0.02356,10.4036 0.322264,10.92 0.41872,0.7238 1.0142145,1.0006 2.6953145,1.2486 0.928635,0.136 3.808604,0.2316 5.982422,0.2646 2.173814,-0.034 5.053784,-0.126 5.982418,-0.2646 1.6811,-0.248 2.276592,-0.5248 2.695314,-1.2486 0.298714,-0.5164 0.322446,-1.3378 0.322266,-10.92 -1.86e-4,-7.712 -0.063,-10.8072 -0.246094,-12.0926 -0.416552,-2.9242 -1.165858,-5.354 -2.455078,-7.9636 -2.436317,-4.9316 -3.021642,-8.0218 -3.298828,-14.56 0.14648,-2.7506 0,-4.9022 0,-4.9022 -0.393828,-0.098 -2.32426,-0.02 -3.00001,0 z"/>
  <path d="m 18.000012,996.414 c -0.675752,-0.02 -2.606182,-0.102 -3.00001,0 0,0 0.07692,3.0518 0,4.8988 -0.277186,6.5382 -0.862514,9.6284 -3.29883,14.56 -1.28922,2.6096 -2.0385265,5.0394 -2.4550785,7.9636 -0.1831,1.2854 -0.245908,4.3806 -0.246092,12.0926 -1.82e-4,9.5822 0.02356,10.4036 0.322264,10.92 0.41872,0.7238 1.0142145,1.0006 2.6953145,1.2486 0.928635,0.136 3.808604,0.2316 5.982422,0.2646 2.173814,-0.034 5.053784,-0.126 5.982418,-0.2646 1.6811,-0.248 2.276592,-0.5248 2.695314,-1.2486 0.298714,-0.5164 0.322446,-1.3378 0.322266,-10.92 -1.86e-4,-7.712 -0.063,-10.8072 -0.246094,-12.0926 -0.416552,-2.9242 -1.165858,-5.354 -2.455078,-7.9636 -2.436317,-4.9316 -3.021642,-8.0218 -3.298828,-14.56 0.14648,-2.7506 0,-4.9022 0,-4.9022 -0.393828,-0.098 -2.32426,-0.02 -3.00001,0 z" style="fill:#334933"/>
  <path style="fill:#ffffff;opacity:0.1" d="M 19.605469 8.0039062 C 18.989164 8.0136562 18.337875 8.0388281 18 8.0488281 L 18 8.0527344 C 17.324248 8.0327344 15.393828 7.9507344 15 8.0527344 C 15 8.0527344 15.010449 8.6554827 15.017578 9.0507812 C 15.432905 8.9525799 17.329768 9.0328978 18 9.0527344 L 18 9.0488281 C 18.67575 9.0288281 20.606172 8.9508281 21 9.0488281 C 21 9.0488281 21.049444 9.9063423 21.058594 11.158203 C 21.084687 9.3254033 21 8.0488281 21 8.0488281 C 20.803086 7.9998281 20.221774 7.9941563 19.605469 8.0039062 z M 15.023438 10.449219 C 15.027017 11.297787 15.03062 12.21593 15 12.951172 C 14.722814 19.489372 14.137488 22.578166 11.701172 27.509766 C 10.411952 30.119366 9.6626458 32.550409 9.2460938 35.474609 C 9.0629938 36.760009 9.000184 39.854406 9 47.566406 C 8.9999934 47.914281 9.0018847 48.065439 9.0019531 48.390625 C 9.0034298 40.853482 9.0648971 37.746647 9.2460938 36.474609 C 9.6626458 33.550409 10.411952 31.119366 11.701172 28.509766 C 14.137488 23.578166 14.722814 20.489372 15 13.951172 C 15.046332 12.838659 15.038306 11.505751 15.023438 10.449219 z M 21.019531 13.332031 C 21.01132 13.544354 21.011761 13.730322 21 13.951172 C 21.277186 20.489372 21.862511 23.578166 24.298828 28.509766 C 25.588048 31.119366 26.337354 33.550409 26.753906 36.474609 C 26.935097 37.746647 26.996568 40.853482 26.998047 48.390625 C 26.998115 48.065439 27.000007 47.914281 27 47.566406 C 26.999814 39.854406 26.937 36.760009 26.753906 35.474609 C 26.337354 32.550409 25.588048 30.119366 24.298828 27.509766 C 21.912919 22.680202 21.304116 19.597442 21.019531 13.332031 z" transform="translate(0,988.3622)"/>
  <path style="opacity:0.2" d="m 15.999023,995.3622 c -0.554002,0 -0.999024,0.446 -0.999024,1 l 0,2 6.000001,0 0,-2 c 0,-0.554 -0.445025,-1 -0.999027,-1 z"/>
  <path d="m 15.999023,994.3622 c -0.554002,0 -0.999024,0.446 -0.999024,1 l 0,2 6.000001,0 0,-2 c 0,-0.554 -0.445025,-1 -0.999027,-1 z" style="fill:#d6aa38"/>
  <path style="fill:#334933" d="m 46.000011,996.414 c -0.675752,-0.02 -2.606184,-0.102 -3.000011,0 0,0 0.07692,3.0518 0,4.8988 -0.277187,6.5382 -0.862513,9.6284 -3.298829,14.56 -1.289222,2.6096 -2.038525,5.0394 -2.455078,7.9636 -0.1831,1.2854 -0.245908,4.3806 -0.246091,12.0926 -1.83e-4,9.5822 0.02356,10.4036 0.322263,10.92 0.41872,0.7238 1.014212,1.0006 2.695313,1.2486 0.928635,0.136 3.808604,0.2316 5.982424,0.2646 2.173814,-0.034 5.053784,-0.126 5.982418,-0.2646 1.6811,-0.248 2.276592,-0.5248 2.695314,-1.2486 0.298714,-0.5164 0.322446,-1.3378 0.322266,-10.92 -1.86e-4,-7.712 -0.063,-10.8072 -0.246094,-12.0926 -0.416552,-2.9242 -1.165858,-5.354 -2.455078,-7.9636 -2.436316,-4.9316 -3.021642,-8.0218 -3.298828,-14.56 0.14648,-2.7506 0,-4.9022 0,-4.9022 -0.393828,-0.098 -2.324262,-0.02 -3.000012,0 z"/>
  <path style="fill:#ffffff;opacity:0.1" d="M 47.605469 8.0039062 C 46.989163 8.0136562 46.337875 8.0388281 46 8.0488281 L 46 8.0527344 C 45.324248 8.0327344 43.393827 7.9507344 43 8.0527344 C 43 8.0527344 43.010449 8.6554827 43.017578 9.0507812 C 43.432904 8.9525799 45.329768 9.0328978 46 9.0527344 L 46 9.0488281 C 46.67575 9.0288281 48.606172 8.9508281 49 9.0488281 C 49 9.0488281 49.049444 9.9063423 49.058594 11.158203 C 49.084687 9.3254033 49 8.0488281 49 8.0488281 C 48.803086 7.9998281 48.221774 7.9941563 47.605469 8.0039062 z M 43.023438 10.449219 C 43.027017 11.297787 43.03062 12.21593 43 12.951172 C 42.722813 19.489372 42.137488 22.578166 39.701172 27.509766 C 38.41195 30.119366 37.662647 32.550409 37.246094 35.474609 C 37.062994 36.760009 37.000183 39.854406 37 47.566406 C 36.999993 47.914281 37.001885 48.065439 37.001953 48.390625 C 37.003429 40.853482 37.064897 37.746647 37.246094 36.474609 C 37.662647 33.550409 38.41195 31.119366 39.701172 28.509766 C 42.137488 23.578166 42.722813 20.489372 43 13.951172 C 43.046332 12.838659 43.038306 11.505751 43.023438 10.449219 z M 49.019531 13.332031 C 49.01132 13.544354 49.011761 13.730322 49 13.951172 C 49.277186 20.489372 49.862512 23.578166 52.298828 28.509766 C 53.588048 31.119366 54.337354 33.550409 54.753906 36.474609 C 54.935097 37.746647 54.996568 40.853482 54.998047 48.390625 C 54.998115 48.065439 55.000007 47.914281 55 47.566406 C 54.999814 39.854406 54.937 36.760009 54.753906 35.474609 C 54.337354 32.550409 53.588048 30.119366 52.298828 27.509766 C 49.91292 22.680202 49.304116 19.597442 49.019531 13.332031 z" transform="translate(0,988.3622)"/>
  <path d="m 43.999021,995.3622 c -0.554002,0 -0.999024,0.446 -0.999024,1 l 0,2 6.000003,0 0,-2 c 0,-0.554 -0.445024,-1 -0.999027,-1 z" style="opacity:0.2"/>
  <path style="fill:#d6aa38" d="m 43.999021,994.3622 c -0.554002,0 -0.999024,0.446 -0.999024,1 l 0,2 6.000003,0 0,-2 c 0,-0.554 -0.445024,-1 -0.999027,-1 z"/>
  <path d="m 32.000011,995.4142 c -0.675752,-0.02 -2.606182,-0.102 -3.00001,0 0,0 0.07692,5.0516 0,6.8986 -0.277186,6.5382 -0.862514,9.6284 -3.29883,14.56 -1.28922,2.6096 -2.038526,5.0394 -2.455078,7.9636 -0.1831,1.2854 -0.245908,4.3806 -0.246092,12.0926 -1.82e-4,9.5822 0.02356,10.4036 0.322264,10.92 0.41872,0.7238 1.014214,1.0006 2.695314,1.2486 0.928636,0.136 3.808604,0.2316 5.982422,0.2646 2.173814,-0.034 5.053784,-0.126 5.982418,-0.2646 1.6811,-0.248 2.276592,-0.5248 2.695315,-1.2486 0.298713,-0.5164 0.322446,-1.3378 0.322266,-10.92 -1.86e-4,-7.712 -0.063,-10.8072 -0.246094,-12.0926 -0.416553,-2.9242 -1.165858,-5.354 -2.455078,-7.9636 -2.436316,-4.9316 -3.021642,-8.0218 -3.298828,-14.56 0.146479,-2.7506 0,-6.902 0,-6.902 -0.393828,-0.098 -2.324261,-0.02 -3.000011,0 z" style="opacity:0.2"/>
  <path style="fill:#962b57" d="m 32.000011,994.4142 c -0.675752,-0.02 -2.606182,-0.102 -3.00001,0 0,0 0.07692,5.0516 0,6.8986 -0.277186,6.5382 -0.862514,9.6284 -3.29883,14.56 -1.28922,2.6096 -2.038526,5.0394 -2.455078,7.9636 -0.1831,1.2854 -0.245908,4.3806 -0.246092,12.0926 -1.82e-4,9.5822 0.02356,10.4036 0.322264,10.92 0.41872,0.7238 1.014214,1.0006 2.695314,1.2486 0.928636,0.136 3.808604,0.2316 5.982422,0.2646 2.173814,-0.034 5.053784,-0.126 5.982418,-0.2646 1.6811,-0.248 2.276592,-0.5248 2.695315,-1.2486 0.298713,-0.5164 0.322446,-1.3378 0.322266,-10.92 -1.86e-4,-7.712 -0.063,-10.8072 -0.246094,-12.0926 -0.416553,-2.9242 -1.165858,-5.354 -2.455078,-7.9636 -2.436316,-4.9316 -3.021642,-8.0218 -3.298828,-14.56 0.146479,-2.7506 0,-6.902 0,-6.902 -0.393828,-0.098 -2.324261,-0.02 -3.000011,0 z"/>
  <path style="fill:#ffffff;opacity:0.1" d="M 33.605469 6.0039062 C 32.989163 6.0136562 32.337875 6.0388281 32 6.0488281 L 32 6.0527344 C 31.324248 6.0327344 29.393828 5.9507344 29 6.0527344 C 29 6.0527344 29.00608 6.769476 29.009766 7.0527344 C 29.415519 6.9528346 31.327286 7.0328243 32 7.0527344 L 32 7.0488281 C 32.67575 7.0288281 34.606172 6.9508281 35 7.0488281 C 35 7.0488281 35.055661 8.8356733 35.058594 10.822266 C 35.083055 8.4565994 35 6.0488281 35 6.0488281 C 34.803086 5.9998281 34.221774 5.9941563 33.605469 6.0039062 z M 29.025391 9.4082031 C 29.030717 10.724435 29.032893 12.161342 29 12.951172 C 28.722814 19.489372 28.137488 22.578166 25.701172 27.509766 C 24.411952 30.119366 23.662646 32.550409 23.246094 35.474609 C 23.062994 36.760009 23.000184 39.854406 23 47.566406 C 22.999993 47.914281 23.001885 48.065439 23.001953 48.390625 C 23.00343 40.853482 23.064897 37.746647 23.246094 36.474609 C 23.662646 33.550409 24.411952 31.119366 25.701172 28.509766 C 28.137488 23.578166 28.722814 20.489372 29 13.951172 C 29.044048 12.893501 29.038905 11.017221 29.025391 9.4082031 z M 35.017578 13.296875 C 35.009836 13.510483 35.010695 13.750338 35 13.951172 C 35.277186 20.489372 35.862512 23.578166 38.298828 28.509766 C 39.588048 31.119366 40.337353 33.550409 40.753906 36.474609 C 40.935097 37.746647 40.996568 40.853482 40.998047 48.390625 C 40.998115 48.065439 41.000007 47.914281 41 47.566406 C 40.999814 39.854406 40.937 36.760009 40.753906 35.474609 C 40.337353 32.550409 39.588048 30.119366 38.298828 27.509766 C 35.908266 22.670781 35.301449 19.587042 35.017578 13.296875 z" transform="translate(0,988.3622)"/>
  <path d="m 29.999023,993.3622 c -0.554002,0 -0.999023,0.446 -0.999023,1 l 0,2 6,0 0,-2 c 0,-0.554 -0.445024,-1 -0.999027,-1 z" style="opacity:0.2"/>
  <path style="fill:#ffcb46" d="m 29.999023,992.3622 c -0.554002,0 -0.999023,0.446 -0.999023,1 l 0,2 6,0 0,-2 c 0,-0.554 -0.445024,-1 -0.999027,-1 z"/>
  <path style="opacity:0.1;fill:#ffffff" d="M 15.998047 6 C 15.444045 6 15 6.446 15 7 L 15 8 C 15 7.446 15.444045 7 15.998047 7 L 20 7 C 20.554002 7 21 7.446 21 8 L 21 7 C 21 6.446 20.554002 6 20 6 L 15.998047 6 z" transform="translate(0,988.3622)"/>
  <path style="opacity:0.1;fill:#ffffff" d="M 43.998047 6 C 43.444045 6 43 6.446 43 7 L 43 8 C 43 7.446 43.444045 7 43.998047 7 L 48 7 C 48.554003 7 49 7.446 49 8 L 49 7 C 49 6.446 48.554003 6 48 6 L 43.998047 6 z" transform="translate(0,988.3622)"/>
  <path style="opacity:0.2;fill:#ffffff" d="M 29.998047 4 C 29.444045 4 29 4.446 29 5 L 29 6 C 29 5.446 29.444045 5 29.998047 5 L 34 5 C 34.554003 5 35 5.446 35 6 L 35 5 C 35 4.446 34.554003 4 34 4 L 29.998047 4 z" transform="translate(0,988.3622)"/>
 </g>
</svg>
